Newaita-dark/apps/22/transmission.svg

<svg height="22" viewBox="0 0 22 22" width="22" xmlns="http://www.w3.org/2000/svg" xmlns:xlink="http://www.w3.org/1999/xlink"><linearGradient id="a" gradientTransform="matrix(0 .0429729 -.0429729 0 12.876637 21.547303)" gradientUnits="userSpaceOnUse" x1="-349.249969" x2="-433.916626" y1="87.979172" y2="87.979172"><stop offset="0" stop-color="#f44336"/><stop offset="1" stop-color="#ef5350"/></linearGradient><linearGradient id="b"><stop offset="0" stop-opacity=".313726"/><stop offset=".222222" stop-opacity=".27451"/><stop offset="1" stop-opacity="0"/></linearGradient><radialGradient id="c" cx="450.908936" cy="189.579361" gradientTransform="matrix(.00000008 -.0537161 -.0644593 -.00000007 23.135221 43.949187)" gradientUnits="userSpaceOnUse" r="21.166656" xlink:href="#b"/><radialGradient id="d" cx="450.908936" cy="189.579361" gradientTransform="matrix(-.00000008 .0537161 .0644593 .00000007 -1.305009 -4.947746)" gradientUnits="userSpaceOnUse" r="21.166656" xlink:href="#b"/><radialGradient id="e" cx="450.908936" cy="189.579361" gradientTransform="matrix(-.00000008 -.0537161 .0644593 -.00000007 -1.305009 43.949187)" gradientUnits="userSpaceOnUse" r="21.166656" xlink:href="#b"/><radialGradient id="f" cx="450.908936" cy="189.579361" gradientTransform="matrix(.00000008 .0537161 -.0644593 .00000007 23.13522 -4.947746)" gradientUnits="userSpaceOnUse" r="21.166656" xlink:href="#b"/><linearGradient id="g" gradientTransform="matrix(.00612336 0 0 .0429729 9.351669 9.466562)" gradientUnits="userSpaceOnUse" x1="255.323059" x2="255.323044" y1="233.5" y2="254.666656"><stop offset="0" stop-opacity=".27451"/><stop offset="1" stop-opacity="0"/></linearGradient><linearGradient id="h" gradientUnits="userSpaceOnUse" x1="10.9151166" x2="10.9151166" y1="19.27333515" y2="2.90066025"><stop offset="0" stop-color="#bdbdbd"/><stop offset="1" stop-color="#e0e0e0"/></linearGradient><path d="m19.101562 5.175781c0 .753907-.609374 1.363281-1.363281 1.363281h-13.644531c-.753906 0-1.363281-.609374-1.363281-1.363281 0-.753906.609375-1.367187 1.363281-1.367187h13.644531c.753907 0 1.363281.613281 1.363281 1.367187zm0 0" fill="url(#a)"/><path d="m11.066406 19.5h1.214844v-.910156h-1.214844zm0 0" fill="url(#c)"/><path d="m10.761719 19.5h-1.210938v.910156h1.210938zm0 0" fill="url(#d)"/><path d="m10.761719 19.5h-1.210938v-.910156h1.210938zm0 0" fill="url(#e)"/><path d="m11.066406 19.5h1.214844v.910156h-1.214844zm0 0" fill="url(#f)"/><path d="m10.761719 19.273438h.304687v1.136718h-.304687zm0 0" fill="url(#g)"/><path d="m4.09375 3.808594c-.757812 0-1.363281.609375-1.363281 1.367187 0 .058594.003906.117188.007812.175781.089844-.671874.660157-1.1875 1.355469-1.1875h13.644531c.695313 0 1.265625.515626 1.351563 1.1875.007812-.058593.011718-.117187.011718-.175781 0-.757812-.609374-1.367187-1.363281-1.367187zm0 0" fill="#fff" fill-opacity=".392157"/><path d="m4.09375 6.53125c-.757812 0-1.363281-.609375-1.363281-1.363281 0-.0625.003906-.121094.007812-.179688.089844.671875.660157 1.1875 1.355469 1.1875h13.644531c.695313 0 1.265625-.515625 1.351563-1.1875.007812.058594.011718.117188.011718.179688 0 .753906-.609374 1.363281-1.363281 1.363281zm0 0" fill-opacity=".235294"/><path d="m-94.556956-444.503007c17.543779 0 31.724243 14.180464 31.724243 31.724244v317.515133c0 17.543779-14.180464 31.724243-31.724243 31.724243s-31.815144-14.180464-31.815144-31.724243v-317.515133c0-17.54378 14.271365-31.724244 31.815144-31.724244zm0 0" fill="none" stroke="#212121" stroke-linecap="square" stroke-linejoin="bevel" stroke-width="3" transform="matrix(0 .0429729 -.0429729 0 0 9.239163)"/><path d="m10.003906 2.914062c-.503906 0-.90625.40625-.90625.910157v10.058593l-4.191406-1.792968c-.113281-.050782-.234375-.074219-.355469-.074219-.839843-.003906-1.230469 1.042969-.59375 1.59375l6.367188 5.457031c.339843.289063.839843.289063 1.179687 0l6.367188-5.457031c.339844-.292969.414062-.789063.179687-1.167969-.238281-.378906-.714843-.527344-1.125-.351562l-4.191406 1.792968v-10.058593c0-.503907-.40625-.910157-.910156-.910157zm0 0" fill="url(#h)"/><path d="m10.003906 2.914062c-.503906 0-.90625.40625-.90625.910157v.328125c0-.503906.402344-.910156.90625-.910156h1.820313c.503906 0 .910156.40625.910156.910156v-.328125c0-.503907-.40625-.910157-.910156-.910157zm7.277344 9.101563c-.121094 0-.238281.023437-.355469.074219l-4.191406 1.792968v.328126l4.191406-1.796876c.410157-.175781.886719-.023437 1.125.355469.0625.097657.101563.207031.121094.3125.039063-.214843 0-.441406-.121094-.640625-.171875-.273437-.464843-.425781-.769531-.425781zm-12.730469 0c-.617187-.003906-.992187.558594-.894531 1.074219.074219-.398438.410156-.75.894531-.746094.121094 0 .242188.023438.355469.070312l4.191406 1.796876v-.328126l-4.191406-1.792968c-.113281-.050782-.234375-.074219-.355469-.074219zm0 0" fill="#fff" fill-opacity=".784314"/><path d="m18.171875 12.75c-.039063.191406-.140625.375-.300781.511719l-6.367188 5.460937c-.339844.289063-.839844.289063-1.179687 0l-6.367188-5.460937c-.167969-.140625-.261719-.320313-.300781-.507813-.054688.296875.03125.621094.300781.855469l6.367188 5.457031c.339843.289063.839843.289063 1.179687 0l6.367188-5.457031c.253906-.21875.359375-.550781.300781-.859375zm0 0" fill-opacity=".235294"/><path d="m232.795951-147.188294c-11.726153 0-21.088895 9.453643-21.088895 21.179796v234.068556l-97.536141-41.723288c-2.636111-1.181705-5.454024-1.727108-8.271937-1.727108-19.543588-.0909-28.633629 24.27041-13.816862 37.087368l148.167669 126.987873c7.908335 6.72663 19.543588 6.72663 27.451923 0l148.167669-126.987873c7.908336-6.817531 9.635444-18.361883 4.181419-27.179223-5.544925-8.81734-16.634775-12.271555-26.179318-8.181037l-97.53614 41.723288v-234.068556c0-11.726153-9.453643-21.179796-21.179796-21.179796zm0 0" fill="none" stroke="#212121" stroke-linecap="round" stroke-linejoin="round" stroke-width="3" transform="matrix(.0429729 0 0 .0429729 0 9.239163)"/></svg>

<?xml version="1.0" encoding="UTF-8"?>
<svg xmlns="http://www.w3.org/2000/svg" xmlns:xlink="http://www.w3.org/1999/xlink" width="22px" height="22px" viewBox="0 0 22 22" version="1.1">
<defs>
<linearGradient id="linear0" gradientUnits="userSpaceOnUse" x1="-349.249969" y1="87.979172" x2="-433.916626" y2="87.979172" gradientTransform="matrix(0.000000000000000003,0.0429729,-0.0429729,0.000000000000000003,12.876637,21.547303)">
<stop offset="0" style="stop-color:rgb(95.686275%,26.274511%,21.176471%);stop-opacity:1;"/>
<stop offset="1" style="stop-color:rgb(93.725491%,32.549021%,31.37255%);stop-opacity:1;"/>
</linearGradient>
<radialGradient id="radial0" gradientUnits="userSpaceOnUse" cx="450.908936" cy="189.579361" fx="450.908936" fy="189.579361" r="21.166656" gradientTransform="matrix(0.0000000798281,-0.0537161,-0.0644593,-0.0000000698078,23.135221,43.949187)">
<stop offset="0" style="stop-color:rgb(0%,0%,0%);stop-opacity:0.313726;"/>
<stop offset="0.222222" style="stop-color:rgb(0%,0%,0%);stop-opacity:0.27451;"/>
<stop offset="1" style="stop-color:rgb(0%,0%,0%);stop-opacity:0;"/>
</radialGradient>
<radialGradient id="radial1" gradientUnits="userSpaceOnUse" cx="450.908936" cy="189.579361" fx="450.908936" fy="189.579361" r="21.166656" gradientTransform="matrix(-0.0000000798281,0.0537161,0.0644593,0.0000000698078,-1.305009,-4.947746)">
<stop offset="0" style="stop-color:rgb(0%,0%,0%);stop-opacity:0.313726;"/>
<stop offset="0.222222" style="stop-color:rgb(0%,0%,0%);stop-opacity:0.27451;"/>
<stop offset="1" style="stop-color:rgb(0%,0%,0%);stop-opacity:0;"/>
</radialGradient>
<radialGradient id="radial2" gradientUnits="userSpaceOnUse" cx="450.908936" cy="189.579361" fx="450.908936" fy="189.579361" r="21.166656" gradientTransform="matrix(-0.0000000798281,-0.0537161,0.0644593,-0.0000000698078,-1.305009,43.949187)">
<stop offset="0" style="stop-color:rgb(0%,0%,0%);stop-opacity:0.313726;"/>
<stop offset="0.222222" style="stop-color:rgb(0%,0%,0%);stop-opacity:0.27451;"/>
<stop offset="1" style="stop-color:rgb(0%,0%,0%);stop-opacity:0;"/>
</radialGradient>
<radialGradient id="radial3" gradientUnits="userSpaceOnUse" cx="450.908936" cy="189.579361" fx="450.908936" fy="189.579361" r="21.166656" gradientTransform="matrix(0.0000000798281,0.0537161,-0.0644593,0.0000000698078,23.13522,-4.947746)">
<stop offset="0" style="stop-color:rgb(0%,0%,0%);stop-opacity:0.313726;"/>
<stop offset="0.222222" style="stop-color:rgb(0%,0%,0%);stop-opacity:0.27451;"/>
<stop offset="1" style="stop-color:rgb(0%,0%,0%);stop-opacity:0;"/>
</radialGradient>
<linearGradient id="linear1" gradientUnits="userSpaceOnUse" x1="255.323059" y1="233.5" x2="255.323044" y2="254.666656" gradientTransform="matrix(0.00612336,0,0,0.0429729,9.351669,9.466562)">
<stop offset="0" style="stop-color:rgb(0%,0%,0%);stop-opacity:0.27451;"/>
<stop offset="1" style="stop-color:rgb(0%,0%,0%);stop-opacity:0;"/>
</linearGradient>
<linearGradient id="linear2" gradientUnits="userSpaceOnUse" x1="254" y1="233.5" x2="254" y2="-147.5" gradientTransform="matrix(0.0429729,0,0,0.0429729,0,9.239163)">
<stop offset="0" style="stop-color:rgb(74.117649%,74.117649%,74.117649%);stop-opacity:1;"/>
<stop offset="1" style="stop-color:rgb(87.843138%,87.843138%,87.843138%);stop-opacity:1;"/>
</linearGradient>
</defs>
<g id="surface1">
<path style=" stroke:none;fill-rule:nonzero;fill:url(#linear0);" d="M 19.101562 5.175781 C 19.101562 5.929688 18.492188 6.539062 17.738281 6.539062 L 4.09375 6.539062 C 3.339844 6.539062 2.730469 5.929688 2.730469 5.175781 C 2.730469 4.421875 3.339844 3.808594 4.09375 3.808594 L 17.738281 3.808594 C 18.492188 3.808594 19.101562 4.421875 19.101562 5.175781 Z M 19.101562 5.175781 "/>
<path style=" stroke:none;fill-rule:nonzero;fill:url(#radial0);" d="M 11.066406 19.5 L 12.28125 19.5 L 12.28125 18.589844 L 11.066406 18.589844 Z M 11.066406 19.5 "/>
<path style=" stroke:none;fill-rule:nonzero;fill:url(#radial1);" d="M 10.761719 19.5 L 9.550781 19.5 L 9.550781 20.410156 L 10.761719 20.410156 Z M 10.761719 19.5 "/>
<path style=" stroke:none;fill-rule:nonzero;fill:url(#radial2);" d="M 10.761719 19.5 L 9.550781 19.5 L 9.550781 18.589844 L 10.761719 18.589844 Z M 10.761719 19.5 "/>
<path style=" stroke:none;fill-rule:nonzero;fill:url(#radial3);" d="M 11.066406 19.5 L 12.28125 19.5 L 12.28125 20.410156 L 11.066406 20.410156 Z M 11.066406 19.5 "/>
<path style=" stroke:none;fill-rule:nonzero;fill:url(#linear1);" d="M 10.761719 19.273438 L 11.066406 19.273438 L 11.066406 20.410156 L 10.761719 20.410156 Z M 10.761719 19.273438 "/>
<path style=" stroke:none;fill-rule:nonzero;fill:rgb(100%,100%,100%);fill-opacity:0.392157;" d="M 4.09375 3.808594 C 3.335938 3.808594 2.730469 4.417969 2.730469 5.175781 C 2.730469 5.234375 2.734375 5.292969 2.738281 5.351562 C 2.828125 4.679688 3.398438 4.164062 4.09375 4.164062 L 17.738281 4.164062 C 18.433594 4.164062 19.003906 4.679688 19.089844 5.351562 C 19.097656 5.292969 19.101562 5.234375 19.101562 5.175781 C 19.101562 4.417969 18.492188 3.808594 17.738281 3.808594 Z M 4.09375 3.808594 "/>
<path style=" stroke:none;fill-rule:nonzero;fill:rgb(0%,0%,0%);fill-opacity:0.235294;" d="M 4.09375 6.53125 C 3.335938 6.53125 2.730469 5.921875 2.730469 5.167969 C 2.730469 5.105469 2.734375 5.046875 2.738281 4.988281 C 2.828125 5.660156 3.398438 6.175781 4.09375 6.175781 L 17.738281 6.175781 C 18.433594 6.175781 19.003906 5.660156 19.089844 4.988281 C 19.097656 5.046875 19.101562 5.105469 19.101562 5.167969 C 19.101562 5.921875 18.492188 6.53125 17.738281 6.53125 Z M 4.09375 6.53125 "/>
<path style="fill:none;stroke-width:3;stroke-linecap:square;stroke-linejoin:bevel;stroke:rgb(12.941177%,12.941177%,12.941177%);stroke-opacity:1;stroke-miterlimit:4;" d="M -94.556956 -444.503007 C -77.013177 -444.503007 -62.832713 -430.322543 -62.832713 -412.778763 L -62.832713 -95.26363 C -62.832713 -77.719851 -77.013177 -63.539387 -94.556956 -63.539387 C -112.100735 -63.539387 -126.3721 -77.719851 -126.3721 -95.26363 L -126.3721 -412.778763 C -126.3721 -430.322543 -112.100735 -444.503007 -94.556956 -444.503007 Z M -94.556956 -444.503007 " transform="matrix(0.000000000000000003,0.0429729,-0.0429729,0.000000000000000003,0,9.239163)"/>
<path style=" stroke:none;fill-rule:nonzero;fill:url(#linear2);" d="M 10.003906 2.914062 C 9.5 2.914062 9.097656 3.320312 9.097656 3.824219 L 9.097656 13.882812 L 4.90625 12.089844 C 4.792969 12.039062 4.671875 12.015625 4.550781 12.015625 C 3.710938 12.011719 3.320312 13.058594 3.957031 13.609375 L 10.324219 19.066406 C 10.664062 19.355469 11.164062 19.355469 11.503906 19.066406 L 17.871094 13.609375 C 18.210938 13.316406 18.285156 12.820312 18.050781 12.441406 C 17.8125 12.0625 17.335938 11.914062 16.925781 12.089844 L 12.734375 13.882812 L 12.734375 3.824219 C 12.734375 3.320312 12.328125 2.914062 11.824219 2.914062 Z M 10.003906 2.914062 "/>
<path style=" stroke:none;fill-rule:nonzero;fill:rgb(100%,100%,100%);fill-opacity:0.784314;" d="M 10.003906 2.914062 C 9.5 2.914062 9.097656 3.320312 9.097656 3.824219 L 9.097656 4.152344 C 9.097656 3.648438 9.5 3.242188 10.003906 3.242188 L 11.824219 3.242188 C 12.328125 3.242188 12.734375 3.648438 12.734375 4.152344 L 12.734375 3.824219 C 12.734375 3.320312 12.328125 2.914062 11.824219 2.914062 Z M 17.28125 12.015625 C 17.160156 12.015625 17.042969 12.039062 16.925781 12.089844 L 12.734375 13.882812 L 12.734375 14.210938 L 16.925781 12.414062 C 17.335938 12.238281 17.8125 12.390625 18.050781 12.769531 C 18.113281 12.867188 18.152344 12.976562 18.171875 13.082031 C 18.210938 12.867188 18.171875 12.640625 18.050781 12.441406 C 17.878906 12.167969 17.585938 12.015625 17.28125 12.015625 Z M 4.550781 12.015625 C 3.933594 12.011719 3.558594 12.574219 3.65625 13.089844 C 3.730469 12.691406 4.066406 12.339844 4.550781 12.34375 C 4.671875 12.34375 4.792969 12.367188 4.90625 12.414062 L 9.097656 14.210938 L 9.097656 13.882812 L 4.90625 12.089844 C 4.792969 12.039062 4.671875 12.015625 4.550781 12.015625 Z M 4.550781 12.015625 "/>
<path style=" stroke:none;fill-rule:nonzero;fill:rgb(0%,0%,0%);fill-opacity:0.235294;" d="M 18.171875 12.75 C 18.132812 12.941406 18.03125 13.125 17.871094 13.261719 L 11.503906 18.722656 C 11.164062 19.011719 10.664062 19.011719 10.324219 18.722656 L 3.957031 13.261719 C 3.789062 13.121094 3.695312 12.941406 3.65625 12.753906 C 3.601562 13.050781 3.6875 13.375 3.957031 13.609375 L 10.324219 19.066406 C 10.664062 19.355469 11.164062 19.355469 11.503906 19.066406 L 17.871094 13.609375 C 18.125 13.390625 18.230469 13.058594 18.171875 12.75 Z M 18.171875 12.75 "/>
<path style="fill:none;stroke-width:3;stroke-linecap:round;stroke-linejoin:round;stroke:rgb(12.941177%,12.941177%,12.941177%);stroke-opacity:1;stroke-miterlimit:4;" d="M 232.795951 -147.188294 C 221.069798 -147.188294 211.707056 -137.734651 211.707056 -126.008498 L 211.707056 108.060058 L 114.170915 66.33677 C 111.534804 65.155065 108.716891 64.609662 105.898978 64.609662 C 86.35539 64.518762 77.265349 88.880072 92.082116 101.69703 L 240.249785 228.684903 C 248.15812 235.411533 259.793373 235.411533 267.701708 228.684903 L 415.869377 101.69703 C 423.777713 94.879499 425.504821 83.335147 420.050796 74.517807 C 414.505871 65.700467 403.416021 62.246252 393.871478 66.33677 L 296.335338 108.060058 L 296.335338 -126.008498 C 296.335338 -137.734651 286.881695 -147.188294 275.155542 -147.188294 Z M 232.795951 -147.188294 " transform="matrix(0.0429729,0,0,0.0429729,0,9.239163)"/>
</g>
</svg>
